X: 3
M: 6/8
L: 1/8
K: A
e |\
c2A B2G | AcA E2E | F2F d2B | (A3 G2)e |
c2A B2G | AcA E2E | F2d B2G | A3  A,2 :|
|: c |\
f2d B2g | a2e c2A | F2d B2G | A3 A,2  :|




